public/icon-org.svg

<svg fill="none" height="35" viewBox="0 0 35 35" width="35" xmlns="http://www.w3.org/2000/svg" xmlns:xlink="http://www.w3.org/1999/xlink"><clipPath id="a"><path d="m0 0h35v35h-35z"/></clipPath><g clip-path="url(#a)"><path d="m16.46 13.14c1.4085-.7069 2.5373-1.8685 3.2036-3.29669s.8312-3.03944.4679-4.57298c-.3632-1.53354-1.2333-2.89963-2.4695-3.87719-1.2361-.977554-2.766-1.509366-4.342-1.509366s-3.1058.531812-4.34198 1.509366c-1.23616.97756-2.10627 2.34365-2.46952 3.87719s-.19838 3.14479.46793 4.57298 1.79506 2.58979 3.20357 3.29669c-2.99146.8579-5.61379 2.684-7.45602 5.1922-1.842238 2.5082-2.8002689 5.5567-2.72396175 8.6678h26.63998175c.0763-3.1111-.8817-6.1596-2.7239-8.6678-1.8423-2.5082-4.4646-4.3343-7.4561-5.1922z" fill="#e71356"/><path d="m24.13 35c6.0033 0 10.87-4.8667 10.87-10.87s-4.8667-10.87-10.87-10.87-10.87 4.8667-10.87 10.87 4.8667 10.87 10.87 10.87z" fill="#ab99ff"/><path d="m19.45 14.34c-2.3037 1.0883-4.1489 2.9554-5.2101 5.2717s-1.2701 4.933-.5899 7.3883h13c.0398-2.5609-.607-5.0857-1.8732-7.3121-1.2661-2.2264-3.1055-4.073-5.3268-5.3479z" fill="#5c00dc"/></g></svg>

<svg width="35" height="35" viewBox="0 0 35 35" fill="none" xmlns="http://www.w3.org/2000/svg">
<g clip-path="url(#clip0_1_4719)">
<path d="M16.46 13.14C17.8685 12.4331 18.9973 11.2715 19.6636 9.84331C20.3299 8.41512 20.4948 6.80387 20.1315 5.27033C19.7683 3.73679 18.8982 2.3707 17.662 1.39314C16.4259 0.415586 14.896 -0.116226 13.32 -0.116226C11.744 -0.116226 10.2142 0.415586 8.97802 1.39314C7.74186 2.3707 6.87175 3.73679 6.5085 5.27033C6.14525 6.80387 6.31012 8.41512 6.97643 9.84331C7.64274 11.2715 8.77149 12.4331 10.18 13.14C7.18854 13.9979 4.56621 15.824 2.72398 18.3322C0.881742 20.8404 -0.0762889 23.8889 1.82521e-05 27H26.64C26.7163 23.8889 25.7583 20.8404 23.9161 18.3322C22.0738 15.824 19.4515 13.9979 16.46 13.14Z" fill="#E71356"/>
<path d="M24.13 35C30.1333 35 35 30.1333 35 24.13C35 18.1267 30.1333 13.26 24.13 13.26C18.1267 13.26 13.26 18.1267 13.26 24.13C13.26 30.1333 18.1267 35 24.13 35Z" fill="#AB99FF"/>
<path d="M19.45 14.34C17.1463 15.4283 15.3011 17.2954 14.2399 19.6117C13.1787 21.928 12.9698 24.5447 13.65 27H26.65C26.6898 24.4391 26.043 21.9143 24.7768 19.6879C23.5107 17.4615 21.6713 15.6149 19.45 14.34Z" fill="#5C00DC"/>
</g>
<defs>
<clipPath id="clip0_1_4719">
<rect width="35" height="35" fill="white"/>
</clipPath>
</defs>
</svg>
